X: 24926
T: Maid Behind The Bar, The
R: reel
M: 4/4
K: Cmajor
|:E4 E3G|EDCD (3EFG cA|dc (3ccc dcAc|dc (3ccc dcAG|
E4 E3G|EDCD (3EFG cA|dc (3ccc dcAE|1 GEDG ECCD:|2 GEDG EC C2||
eg ^fg ec ~c2|ecgc ec ~c2|e2 ag ed (3ddd|edad ed (3ddd|
eg (3ggg aged|(3ccc cA d2 cd|(3edc dc AGcA|GEDF EC C2|
(3ggg ^fa gc ~c2|Gc ~c2 cdeg|^fd ~d2 defg|(3agf fe fedf|
ec ~c2 AFGc|AF ~F2 Ad ~d2|dcdc AGcA|GEDF ED C2||

